icons/fold-down-16.svg

<svg width="16" height="16" viewBox="0 0 16 16" xmlns="http://www.w3.org/2000/svg">
  <path fill-rule="evenodd" clip-rule="evenodd" d="M8.17678 14.3233L11.0732 11.4268C11.2307 11.2693 11.1192 11 10.8964 11H8.75V7.76433C8.75 7.35011 8.41421 7.01433 8 7.01433C7.58579 7.01433 7.25 7.35011 7.25 7.76433V11H5.10355C4.88083 11 4.76928 11.2693 4.92678 11.4268L7.82322 14.3233C7.92085 14.4209 8.07915 14.4209 8.17678 14.3233ZM2.25 5C2.66421 5 3 4.66421 3 4.25C3 3.83579 2.66421 3.5 2.25 3.5H1.75C1.33579 3.5 1 3.83579 1 4.25C1 4.66421 1.33579 5 1.75 5H2.25ZM6 4.25C6 4.66421 5.66421 5 5.25 5H4.75C4.33579 5 4 4.66421 4 4.25C4 3.83579 4.33579 3.5 4.75 3.5H5.25C5.66421 3.5 6 3.83579 6 4.25ZM8.25 5C8.66421 5 9 4.66421 9 4.25C9 3.83579 8.66421 3.5 8.25 3.5H7.75C7.33579 3.5 7 3.83579 7 4.25C7 4.66421 7.33579 5 7.75 5H8.25ZM12 4.25C12 4.66421 11.6642 5 11.25 5H10.75C10.3358 5 10 4.66421 10 4.25C10 3.83579 10.3358 3.5 10.75 3.5H11.25C11.6642 3.5 12 3.83579 12 4.25ZM14.25 5C14.6642 5 15 4.66421 15 4.25C15 3.83579 14.6642 3.5 14.25 3.5H13.75C13.3358 3.5 13 3.83579 13 4.25C13 4.66421 13.3358 5 13.75 5H14.25Z"/>
</svg>

<svg xmlns="http://www.w3.org/2000/svg" width="16" height="16" viewBox="0 0 16 16"><path fill-rule="evenodd" d="M8.177 14.323l2.896-2.896a.25.25 0 00-.177-.427H8.75V7.764a.75.75 0 10-1.5 0V11H5.104a.25.25 0 00-.177.427l2.896 2.896a.25.25 0 00.354 0zM2.25 5a.75.75 0 000-1.5h-.5a.75.75 0 000 1.5h.5zM6 4.25a.75.75 0 01-.75.75h-.5a.75.75 0 010-1.5h.5a.75.75 0 01.75.75zM8.25 5a.75.75 0 000-1.5h-.5a.75.75 0 000 1.5h.5zM12 4.25a.75.75 0 01-.75.75h-.5a.75.75 0 010-1.5h.5a.75.75 0 01.75.75zm2.25.75a.75.75 0 000-1.5h-.5a.75.75 0 000 1.5h.5z"/></svg>
